client/src/assets/images/icon-baby-link.svg

<svg fill="none" height="81" viewBox="0 0 81 81" width="81" xmlns="http://www.w3.org/2000/svg"><path d="m40.5 81c22.3675 0 40.5-18.1325 40.5-40.5s-18.1325-40.5-40.5-40.5-40.5 18.1325-40.5 40.5 18.1325 40.5 40.5 40.5z" fill="#06b9ff"/><g fill="#fff"><path d="m40.5557 32.5304c-1.7065 0-3.3749-.506-4.7937-1.454-1.4189-.9481-2.5246-2.2956-3.1777-3.8722-.653-1.5765-.824-3.3113-.491-4.985.3329-1.6736 1.1546-3.211 2.3613-4.4177 1.2066-1.2066 2.7439-2.0283 4.4176-2.3613 1.6736-.3329 3.4087-.162 4.9852.491 1.5766.6531 2.9239 1.7589 3.872 3.1778.948 1.4189 1.4542 3.087 1.4542 4.7934-.0028 2.2875-.9127 4.4804-2.5302 6.0979-1.6174 1.6174-3.8103 2.5274-6.0977 2.5301zm0-15c-1.2615 0-2.4946.3741-3.5435 1.0749-1.0489.7009-1.8665 1.697-2.3492 2.8624-.4828 1.1654-.6091 2.4478-.363 3.685s.8538 2.3737 1.7458 3.2657c.8919.8919 2.0283 1.4994 3.2655 1.7455s2.5197.1198 3.6851-.3629c1.1655-.4828 2.1615-1.3003 2.8624-2.3491.7008-1.0489 1.0748-2.282 1.0748-3.5434-.0004-1.692-.6722-3.3147-1.8681-4.5117-1.1958-1.1969-2.8179-1.8704-4.5098-1.8724z"/><path d="m40.5565 55.7983c-4.7865 0-8.1302-3.7815-8.1302-9.198 0-.2983.1186-.5845.3296-.7955.2109-.2109.497-.3295.7954-.3295h13.95c.2984 0 .5845.1186.7955.3295.2109.211.3295.4972.3295.7955.0045 5.4165-3.3163 9.198-8.0698 9.198zm-5.8158-8.073c.357 3.051 2.1963 5.823 5.8158 5.823 3.8025 0 5.4342-2.928 5.7612-5.823z"/><path d="m25.2494 47.9714c-.6696.0007-1.3253-.1907-1.8893-.5516-.564-.3608-1.0125-.876-1.2924-1.4842-.2798-.6083-.3792-1.284-.2863-1.9471.0928-.6631.3739-1.2856.81-1.7936l8.9821-10.5165c.1939-.2268.4697-.3672.7672-.3904s.5921.0727.8188.2666c.2268.194.3672.47.3904.7675s-.0727.592-.2666.8188l-8.9821 10.5165c-.1069.1245-.1883.2688-.2395.4248-.0511.1559-.0709.3204-.0585.4841.0123.1636.0566.3232.1307.4697s.1765.2769.301.3839c.1245.1069.2689.1883.4248.2395.156.0512.3205.0711.4842.0587.1636-.0123.323-.0569.4694-.1309.1465-.0741.2772-.1763.3842-.3008l6.6299-7.5c.1522-.1723.3534-.2939.5768-.3483.2233-.0544.4579-.039.6723.044s.3985.2297.527.4203c.1285.1907.1954.4161.1919.646l-.1187 7.599c-.0089.297-.1333.5787-.3468.7854-.2134.2068-.499.3221-.7961.3216-.1478-.0024-.2936-.0338-.4292-.0925s-.2583-.1436-.3611-.2497c-.1028-.1062-.1837-.2315-.238-.3689-.0544-.1374-.0811-.2842-.0788-.4319l.0722-4.554-4.6037 5.2095c-.3279.3799-.7341.6843-1.1909.8922-.4567.2079-.9531.3145-1.4549.3123z"/><path d="m35.161 67.0035c-.6699.0004-1.3258-.1912-1.8903-.5519-.5646-.3607-1.0141-.8755-1.2953-1.4836l-3.9482-7.1235c-.6498-.866-.9806-1.9299-.9364-3.0118.0443-1.0818.4608-2.1151 1.1792-2.9252l3.876-3.339c.1113-.1002.2416-.1772.3831-.2264.1415-.0493.2914-.0697.4409-.0603.1495.0095.2958.0487.4299.1154.1342.0667.2534.1595.3512.2729.0978.1135.1721.2454.2183.3879.0461.1425.0632.2928.0505.4421-.0127.1492-.0553.2944-.1249.4271-.0695.1326-.1649.25-.2805.3453l-3.8445 3.3105c-.2995.4752-.4417 1.0327-.4064 1.5933.0352.5606.2464 1.0958.6031 1.5297l4.0155 7.2465c.0644.1579.1595.3012.2802.4217.1206.1204.2642.2154.4222.2795.158.064.3272.0957.4977.0933.1704-.0024.3386-.039.4947-.1075.2988-.139.5307-.3902.6453-.6992.1146-.3089.1029-.6506-.033-.9508l-2.7-5.946c-.1106-.2428-.1309-.517-.0575-.7735s.2355-.4784.4577-.626l2.8502-1.9005c.1229-.0838.2612-.1425.4069-.1726s.296-.0309.442-.0026c.1461.0284.2849.0855.4087.1679.1239.0824.2302.1887.3128.3124.0825.1238.1396.2628.168.4088.0285.146.0278.2962-.0021.442-.03.1457-.0887.284-.1725.4069-.0838.123-.191.2281-.3157.3092l-2.0537 1.3695 2.298 5.0685c.2432.5322.3493 1.1169.3079 1.7006-.0413.5837-.2287 1.1477-.5445 1.6403-.3159.4925-.7503.898-1.2634 1.1791-.5132.2812-1.0888.429-1.674.43z"/><path d="m55.7612 47.9698c-.0915 0-.1817 0-.2747-.0105-.4584-.033-.9056-.1567-1.3158-.364s-.7753-.494-1.0737-.8435l-4.5703-5.1735.1032 4.5225c.0065.2985-.1059.5874-.3123.8031-.2065.2158-.49.3407-.7885.3474h-.0242c-.2938-.0003-.5757-.1154-.7858-.3209-.2102-.2054-.3321-.4848-.3392-.7786l-.1724-7.5975c-.0054-.2306.0604-.4574.1882-.6495.1278-.192.3114-.3402.5262-.4244.2148-.0841.4503-.1002.6746-.046s.4263.176.579.3489l6.6196 7.491c.1073.1272.2387.2319.3867.3079.1481.0759.3098.1217.4757.1346.2464.0197.4932-.0342.709-.1548.2158-.1205.3908-.3024.5032-.5225.1124-.2202.1571-.4687.1282-.7142s-.13-.4769-.2904-.665l-8.985-10.5195c-.194-.2269-.2896-.5217-.2663-.8193.0234-.2976.1638-.5737.3908-.7677.2269-.1939.5216-.2898.8192-.2664.2976.0233.574.1639.7679.3909l8.9821 10.518c.4353.5073.716 1.1288.809 1.7908.0929.662-.0058 1.3367-.2846 1.9443s-.7259 1.1225-1.2883 1.4838c-.5625.3613-1.2168.5538-1.8853.5546z"/><path d="m45.8364 67.0035c-.5863-.0008-1.1629-.1491-1.6769-.431s-.949-.6884-1.2649-1.1823c-.3158-.4939-.5028-1.0593-.5431-1.6441-.0403-.5849.0673-1.1705.3124-1.7031l2.2965-5.064-2.0537-1.3695c-.1247-.0812-.2319-.1862-.3157-.3092-.0838-.1229-.1425-.2613-.1725-.407-.0299-.1457-.0306-.2959-.0021-.4419.0284-.1461.0855-.285.168-.4088.0826-.1238.1889-.23.3128-.3124.1238-.0825.2626-.1395.4087-.1679.146-.0284.2963-.0275.442.0026.1457.03.284.0887.4069.1726l2.8498 1.9005c.222.1478.3843.3698.4574.6263s.0524.5306-.0582.7732l-2.7001 5.94c-.1392.3016-.1529.6461-.0381.9577.1148.3117.3485.565.65.7043.3003.135.642.1465.9507.032s.5599-.3458.6995-.644l4.0261-7.2735c.3713-.442.5902-.9918.6248-1.568.0345-.5762-.1171-1.1483-.4329-1.6315l-3.8115-3.282c-.1181-.0944-.2161-.2116-.2879-.3447s-.1159-.2792-.13-.4298c-.014-.1505.0024-.3024.0484-.4464.0459-.1441.1207-.2774.2193-.392.0987-.1146.2193-.2081.3549-.275.1356-.0668.2834-.1057.4343-.1142.151-.0085.302.0135.4442.0647.1423.0512.2729.1306.3838.2334l3.846 3.309c.7335.8181 1.1592 1.8661 1.2041 2.964.0449 1.098-.2937 2.1772-.958 3.0525l-3.9588 7.149c-.3876.812-1.0803 1.438-1.9273 1.7415-.3871.1433-.7962.2174-1.2089.219z"/></g></svg>

<svg width="81" height="81" viewBox="0 0 81 81" fill="none" xmlns="http://www.w3.org/2000/svg">
    <path d="M40.5 81C62.8675 81 81 62.8675 81 40.5C81 18.1325 62.8675 0 40.5 0C18.1325 0 0 18.1325 0 40.5C0 62.8675 18.1325 81 40.5 81Z" fill="#06B9FF"/>
    <path d="M40.5557 32.5304C38.8492 32.5304 37.1808 32.0244 35.762 31.0764C34.3431 30.1283 33.2374 28.7808 32.5843 27.2042C31.9313 25.6277 31.7603 23.8929 32.0933 22.2192C32.4262 20.5456 33.2479 19.0082 34.4546 17.8015C35.6612 16.5949 37.1985 15.7732 38.8722 15.4402C40.5458 15.1073 42.2809 15.2782 43.8574 15.9312C45.434 16.5843 46.7813 17.6901 47.7294 19.109C48.6774 20.5279 49.1836 22.196 49.1836 23.9024C49.1808 26.1899 48.2709 28.3828 46.6534 30.0003C45.036 31.6177 42.8431 32.5277 40.5557 32.5304ZM40.5557 17.5304C39.2942 17.5304 38.0611 17.9045 37.0122 18.6053C35.9633 19.3062 35.1457 20.3023 34.663 21.4677C34.1802 22.6331 34.0539 23.9155 34.3 25.1527C34.5461 26.3899 35.1538 27.5264 36.0458 28.4184C36.9377 29.3103 38.0741 29.9178 39.3113 30.1639C40.5485 30.41 41.831 30.2837 42.9964 29.801C44.1619 29.3182 45.1579 28.5007 45.8588 27.4519C46.5596 26.403 46.9336 25.1699 46.9336 23.9085C46.9332 22.2165 46.2614 20.5938 45.0655 19.3968C43.8697 18.1999 42.2476 17.5264 40.5557 17.5244V17.5304Z" fill="white"/>
    <path d="M40.5565 55.7983C35.77 55.7983 32.4263 52.0168 32.4263 46.6003C32.4263 46.302 32.5449 46.0158 32.7559 45.8048C32.9668 45.5939 33.2529 45.4753 33.5513 45.4753H47.5013C47.7997 45.4753 48.0858 45.5939 48.2968 45.8048C48.5077 46.0158 48.6263 46.302 48.6263 46.6003C48.6308 52.0168 45.31 55.7983 40.5565 55.7983ZM34.7407 47.7253C35.0977 50.7763 36.937 53.5483 40.5565 53.5483C44.359 53.5483 45.9907 50.6203 46.3177 47.7253H34.7407Z" fill="white"/>
    <path d="M25.2494 47.9714C24.5798 47.9721 23.9241 47.7807 23.3601 47.4198C22.7961 47.059 22.3476 46.5438 22.0677 45.9356C21.7879 45.3273 21.6885 44.6516 21.7814 43.9885C21.8742 43.3254 22.1553 42.7029 22.5914 42.1949L31.5735 31.6784C31.7674 31.4516 32.0432 31.3112 32.3407 31.288C32.6382 31.2648 32.9328 31.3607 33.1595 31.5546C33.3863 31.7486 33.5267 32.0246 33.5499 32.3221C33.5731 32.6196 33.4772 32.9141 33.2833 33.1409L24.3012 43.6574C24.1943 43.7819 24.1129 43.9262 24.0617 44.0822C24.0106 44.2381 23.9908 44.4026 24.0032 44.5663C24.0155 44.7299 24.0598 44.8895 24.1339 45.036C24.208 45.1825 24.3104 45.3129 24.4349 45.4199C24.5594 45.5268 24.7038 45.6082 24.8597 45.6594C25.0157 45.7106 25.1802 45.7305 25.3439 45.7181C25.5075 45.7058 25.6669 45.6612 25.8133 45.5872C25.9598 45.5131 26.0905 45.4109 26.1975 45.2864L32.8274 37.7864C32.9796 37.6141 33.1808 37.4925 33.4042 37.4381C33.6275 37.3837 33.8621 37.3991 34.0765 37.4821C34.2909 37.5651 34.475 37.7118 34.6035 37.9024C34.732 38.0931 34.7989 38.3185 34.7954 38.5484L34.6767 46.1474C34.6678 46.4444 34.5434 46.7261 34.3299 46.9328C34.1165 47.1396 33.8309 47.2549 33.5338 47.2544C33.386 47.252 33.2402 47.2206 33.1046 47.1619C32.969 47.1032 32.8463 47.0183 32.7435 46.9122C32.6407 46.806 32.5598 46.6807 32.5055 46.5433C32.4511 46.4059 32.4244 46.2591 32.4267 46.1114L32.4989 41.5574L27.8952 46.7669C27.5673 47.1468 27.1611 47.4512 26.7043 47.6591C26.2476 47.867 25.7512 47.9736 25.2494 47.9714Z" fill="white"/>
    <path d="M35.161 67.0035C34.4911 67.0039 33.8352 66.8123 33.2707 66.4516C32.7061 66.0909 32.2566 65.5761 31.9754 64.968L28.0272 57.8445C27.3774 56.9785 27.0466 55.9146 27.0908 54.8327C27.1351 53.7509 27.5516 52.7176 28.27 51.9075L32.146 48.5685C32.2573 48.4683 32.3876 48.3913 32.5291 48.3421C32.6706 48.2928 32.8205 48.2724 32.97 48.2818C33.1195 48.2913 33.2658 48.3305 33.3999 48.3972C33.5341 48.4639 33.6533 48.5567 33.7511 48.6701C33.8489 48.7836 33.9232 48.9155 33.9694 49.058C34.0155 49.2005 34.0326 49.3508 34.0199 49.5001C34.0072 49.6493 33.9646 49.7945 33.895 49.9272C33.8255 50.0598 33.7301 50.1772 33.6145 50.2725L29.77 53.583C29.4705 54.0582 29.3283 54.6157 29.3636 55.1763C29.3988 55.7369 29.61 56.2721 29.9667 56.706L33.9822 63.9525C34.0466 64.1104 34.1417 64.2537 34.2624 64.3742C34.383 64.4946 34.5266 64.5896 34.6846 64.6537C34.8426 64.7177 35.0118 64.7494 35.1823 64.747C35.3527 64.7446 35.5209 64.708 35.677 64.6395C35.9758 64.5005 36.2077 64.2493 36.3223 63.9403C36.4369 63.6314 36.4252 63.2897 36.2893 62.9895L33.5893 57.0435C33.4787 56.8007 33.4584 56.5265 33.5318 56.27C33.6052 56.0135 33.7673 55.7916 33.9895 55.644L36.8397 53.7435C36.9626 53.6597 37.1009 53.601 37.2466 53.5709C37.3923 53.5408 37.5426 53.54 37.6886 53.5683C37.8347 53.5967 37.9735 53.6538 38.0973 53.7362C38.2212 53.8186 38.3275 53.9249 38.4101 54.0486C38.4926 54.1724 38.5497 54.3114 38.5781 54.4574C38.6066 54.6034 38.6059 54.7536 38.576 54.8994C38.546 55.0451 38.4873 55.1834 38.4035 55.3063C38.3197 55.4293 38.2125 55.5344 38.0878 55.6155L36.0341 56.985L38.3321 62.0535C38.5753 62.5857 38.6814 63.1704 38.64 63.7541C38.5987 64.3378 38.4113 64.9018 38.0955 65.3944C37.7796 65.8869 37.3452 66.2924 36.8321 66.5735C36.3189 66.8547 35.7433 67.0025 35.1581 67.0035H35.161Z" fill="white"/>
    <path d="M55.7612 47.9698C55.6697 47.9698 55.5795 47.9698 55.4865 47.9593C55.0281 47.9263 54.5809 47.8026 54.1707 47.5953C53.7605 47.388 53.3954 47.1013 53.097 46.7518L48.5267 41.5783L48.6299 46.1008C48.6364 46.3993 48.524 46.6882 48.3176 46.9039C48.1111 47.1197 47.8276 47.2446 47.5291 47.2513H47.5049C47.2111 47.251 46.9292 47.1359 46.7191 46.9304C46.5089 46.725 46.387 46.4456 46.3799 46.1518L46.2075 38.5543C46.2021 38.3237 46.2679 38.0969 46.3957 37.9048C46.5235 37.7128 46.7071 37.5646 46.9219 37.4804C47.1367 37.3963 47.3722 37.3802 47.5965 37.4344C47.8208 37.4886 48.0228 37.6104 48.1755 37.7833L54.7951 45.2743C54.9024 45.4015 55.0338 45.5062 55.1818 45.5822C55.3299 45.6581 55.4916 45.7039 55.6575 45.7168C55.9039 45.7365 56.1507 45.6826 56.3665 45.562C56.5823 45.4415 56.7573 45.2596 56.8697 45.0395C56.9821 44.8193 57.0268 44.5708 56.9979 44.3253C56.969 44.0798 56.8679 43.8484 56.7075 43.6603L47.7225 33.1408C47.5285 32.9139 47.4329 32.6191 47.4562 32.3215C47.4796 32.0239 47.62 31.7478 47.847 31.5538C48.0739 31.3599 48.3686 31.264 48.6662 31.2874C48.9638 31.3107 49.2402 31.4513 49.4341 31.6783L58.4162 42.1963C58.8515 42.7036 59.1322 43.3251 59.2252 43.9871C59.3181 44.6491 59.2194 45.3238 58.9406 45.9314C58.6618 46.539 58.2147 47.0539 57.6523 47.4152C57.0898 47.7765 56.4355 47.969 55.767 47.9698H55.7612Z" fill="white"/>
    <path d="M45.8364 67.0035C45.2501 67.0027 44.6735 66.8544 44.1595 66.5725C43.6455 66.2906 43.2105 65.8841 42.8946 65.3902C42.5788 64.8963 42.3918 64.3309 42.3515 63.7461C42.3112 63.1612 42.4188 62.5756 42.6639 62.043L44.9604 56.979L42.9067 55.6095C42.782 55.5283 42.6748 55.4233 42.591 55.3003C42.5072 55.1774 42.4485 55.039 42.4185 54.8933C42.3886 54.7476 42.3879 54.5974 42.4164 54.4514C42.4448 54.3053 42.5019 54.1664 42.5844 54.0426C42.667 53.9188 42.7733 53.8126 42.8972 53.7302C43.021 53.6477 43.1598 53.5907 43.3059 53.5623C43.4519 53.5339 43.6022 53.5348 43.7479 53.5649C43.8936 53.5949 44.0319 53.6536 44.1548 53.7375L47.0046 55.638C47.2266 55.7858 47.3889 56.0078 47.462 56.2643C47.5351 56.5208 47.5144 56.7949 47.4038 57.0375L44.7037 62.9775C44.5645 63.2791 44.5508 63.6236 44.6656 63.9352C44.7804 64.2469 45.0141 64.5002 45.3156 64.6395C45.6159 64.7745 45.9576 64.786 46.2663 64.6715C46.575 64.557 46.8262 64.3257 46.9658 64.0275L50.9919 56.754C51.3632 56.312 51.5821 55.7622 51.6167 55.186C51.6512 54.6098 51.4996 54.0377 51.1838 53.5545L47.3723 50.2725C47.2542 50.1781 47.1562 50.0609 47.0844 49.9278C47.0126 49.7947 46.9685 49.6486 46.9544 49.498C46.9404 49.3475 46.9568 49.1956 47.0028 49.0516C47.0487 48.9075 47.1235 48.7742 47.2221 48.6596C47.3208 48.545 47.4414 48.4515 47.577 48.3846C47.7126 48.3178 47.8604 48.2789 48.0113 48.2704C48.1623 48.2619 48.3133 48.2839 48.4555 48.3351C48.5978 48.3863 48.7284 48.4657 48.8393 48.5685L52.6853 51.8775C53.4188 52.6956 53.8445 53.7436 53.8894 54.8415C53.9343 55.9395 53.5957 57.0187 52.9314 57.894L48.9726 65.043C48.585 65.855 47.8923 66.481 47.0453 66.7845C46.6582 66.9278 46.2491 67.0019 45.8364 67.0035Z" fill="white"/>
</svg>
